packages/ffe-icons/icons/open/500/md/highlight_text_cursor.svg

<svg xmlns="http://www.w3.org/2000/svg" height="24" viewBox="0 -960 960 960" width="24"><path d="M480-71.87q-84.913 0-159.345-32.117-74.432-32.118-129.491-87.177-55.059-55.059-87.177-129.491Q71.869-395.087 71.869-480t32.118-159.345q32.118-74.432 87.177-129.491 55.059-55.059 129.491-87.177Q395.087-888.131 480-888.131t159.345 32.118q74.432 32.118 129.491 87.177 55.059 55.059 87.177 129.491Q888.131-564.913 888.131-480t-32.118 159.345q-32.118 74.432-87.177 129.491-55.059 55.059-129.491 87.177Q564.913-71.869 480-71.869Zm0-91q133.043 0 225.087-92.043Q797.13-346.957 797.13-480t-92.043-225.087Q613.043-797.13 480-797.13t-225.087 92.043Q162.87-613.043 162.87-480t92.043 225.087Q346.957-162.87 480-162.87ZM480-480Zm-80 208.131h160q19.152 0 32.326-13.174T605.5-317.37q0-19.152-13.174-32.326T560-362.87h-34.5v-231.152H560q19.152 0 32.326-13.174t13.174-32.326q0-19.152-13.174-32.326T560-685.022H400q-19.152 0-32.326 13.174T354.5-639.522q0 19.152 13.174 32.326T400-594.022h34.5v231.152H400q-19.152 0-32.326 13.174T354.5-317.37q0 19.153 13.174 32.327T400-271.869Z"/></svg>

<svg xmlns="http://www.w3.org/2000/svg" height="24" viewBox="0 -960 960 960" width="24"><path d="M480-71.87q-84.91 0-159.34-32.12-74.44-32.12-129.5-87.17-55.05-55.06-87.17-129.5Q71.87-395.09 71.87-480t32.12-159.34q32.12-74.44 87.17-129.5 55.06-55.05 129.5-87.17 74.43-32.12 159.34-32.12t159.34 32.12q74.44 32.12 129.5 87.17 55.05 55.06 87.17 129.5 32.12 74.43 32.12 159.34t-32.12 159.34q-32.12 74.44-87.17 129.5-55.06 55.05-129.5 87.17Q564.91-71.87 480-71.87Zm0-91q133.04 0 225.09-92.04 92.04-92.05 92.04-225.09 0-133.04-92.04-225.09-92.05-92.04-225.09-92.04-133.04 0-225.09 92.04-92.04 92.05-92.04 225.09 0 133.04 92.04 225.09 92.05 92.04 225.09 92.04ZM480-480Zm-80 208.13h160q19.15 0 32.33-13.17 13.17-13.18 13.17-32.33t-13.17-32.33q-13.18-13.17-32.33-13.17h-34.5v-231.15H560q19.15 0 32.33-13.18 13.17-13.17 13.17-32.32t-13.17-32.33q-13.18-13.17-32.33-13.17H400q-19.15 0-32.33 13.17-13.17 13.18-13.17 32.33t13.17 32.32q13.18 13.18 32.33 13.18h34.5v231.15H400q-19.15 0-32.33 13.17-13.17 13.18-13.17 32.33t13.17 32.33q13.18 13.17 32.33 13.17Z"/></svg>
